X:0898
T:The Billet Doux.
M:2/4
L:1/8
Q:1/4=120
N:last note printed as a a crotchet
I: :: :|
Z:Jack Campin * www.campin.me.uk * 2009
K:G
d|gg       dd | B(A/B/) GD | GG     A(G/A/)| B2  z d|\
  gg       dd | B(A/B/) GA | BB    (^cB/c/)| d2  D :|
d|d(e/d/) .B.B|.c.c    .A.A|d(e/d/) .B.B   |.c.A.A.d|\
  d`e/d/  .B.B|.c.c    .A.A| G(F/G/) AF    | G2  G :|
<end>
<start>
